X: 1654
T: Safvet-i Aşkım Bilip...
C: Şevki Bey
O: Turkey
F: http://compmusic.upf.edu/node/140
N: kurdilihicazkar--sarki--aksak--safvet-i_askim--sevki_bey
N: makam= kurdilihicazkar
N: form= sarki
N: usul= aksak = 9/8
M: 9/8
L: 1/16
K: C _B _e _A 
Q: 1/4=108
%%MIDI tuningsystem comma53
G4 f3g g4 g4 gf | _1/4e4f4g2 {b}agg4gf  | \
w:  *  Saf vet_ i  aş  |  kım  bi lip  *  *  *  ey   | 
_1/4e3/2d/ef e/d/cef g4 f_edc BA | 
w:  gül  *  *  *  *  *  *  *  te nim   SAZ  | 
G4f3gg4g4gf  | _1/4e4 f4 g2{b}ag g4 gf | \
w:  *  Saf vet_ i  aş  |  kım  bi lip  *  *  *  ey   | 
_1/4e3/2d/ efe/d/c efg4ga gfef  | 
w:  gül  *  *  *  *  *  *  *  te nim   SAZ  | 
g4 zf2g g4 gaga gf | g2 f/_1/4e/fzc'2c'c'3/2_1/4b/ _7/8aggf feed  | 
w:  *  Gön lü mü  lût  |  *  *  *  *  fun la  şâd_ *  *  *  et  | 
=a2gf f_1/4eed d4 g2{_a}gf ef | g4zf2gg4gf feed  | 
w:  tin  *  *  *  *  *  be nim   SAZ  |  *  Gön lü mü  lût  | 
g3/2f/e/d/c zB2c de/f/dc c4 B2 | dc cBBA AGG4d2 {e}dc_1/4Bc  | 
w:  *  *  *  *  *  fun la  şâd_ *  *  *  *  et  |  tin  *  *  *  *  *  *  be nim   SAZ  | 
d4 zc2d d3c d_1/4efg =ab | =ag2ff_1/4e eddc agg4gf  | 
w:  *  Öm rüm_ ol *  duk  |  ça  *  *  se *  *  *  nin  *  *  *  ef  | 
_1/4e3/2d/ef e/d/cef g4 f3e ed | d4zc2dd3cd_1/4e fg=ab  | 
w:  ken *  *  *  *  *  *  *  de nim   SAZ  |  *  Öm rüm_ ol *  duk  | 
=ag2f f_1/4eed dcag g4 gf | _1/4e3/2d/ efe/d/c efg4g2 {a}gfef  | 
w:  ça  *  *  se *  *  *  nin  *  *  *  ef  |  ken *  *  *  *  *  *  *  de nim   SAZ  | 
g4 zf2g g4 gaga gf | g2 f/_1/4e/fzc'2c'c'3/2_1/4b/ _7/8aggf feed  | 
w:  *  Gön lü mü  lût  |  *  *  *  *  fun la  şâd_ *  *  *  et  | 
=a2gf f_1/4eed d4 g2{_a}gf ef | g4zf2gg4gf feed  | 
w:  tin  *  *  *  *  *  be nim   SAZ  |  *  Gön lü mü  lût  | 
g3/2f/e/d/c zB2c de/f/dc c4 B2 | dc cBBA AGG4|
w:  *  *  *  *  *  fun la  şâd_ *  *  *  *  et  |  tin  *  *  *  *  *  *  be nim    | 


